X:112
T:Sean Henneghan's Polka
B:Terry "Cuz" Teahan "Sliabh Luachra on Parade" 1980
Z:Patrick Cavanagh
M:2/4
L:1/8
R:Polka
K:D
| D2 DB | AF FB | AF DE | FE E2 | 
D2 DB | A2 FB | AF EF/E/ | D2 D2 :| 
| d2 ce | Bc BA | d2 ce | B2 BB/c/ | 
dB c/B/A | Bc/B/ A>B | AF EF/E/ | D2 D2 :|| 

